images_elementary_svg/chart2/res/areaspiled_52x60.svg

<svg height="52" viewBox="0 0 60 52" width="60" xmlns="http://www.w3.org/2000/svg" xmlns:xlink="http://www.w3.org/1999/xlink"><linearGradient id="a"><stop offset="0" stop-color="#fff"/><stop offset=".58055538" stop-color="#fff" stop-opacity=".23529"/><stop offset="1" stop-color="#fff" stop-opacity=".15686"/><stop offset="1" stop-color="#fff" stop-opacity=".39216"/></linearGradient><linearGradient id="b" gradientUnits="userSpaceOnUse" x1="30" x2="30" y1="27" y2="39.5"><stop offset="0" stop-color="#cd9ef7"/><stop offset="1" stop-color="#a56de2"/></linearGradient><linearGradient id="c" gradientUnits="userSpaceOnUse" x1="35" x2="36.028595" y1="23.0145" y2="35.634556"><stop offset="0" stop-color="#f7b19e"/><stop offset="1" stop-color="#e2866d"/></linearGradient><linearGradient id="d" gradientTransform="matrix(1.3832 0 0 1.4144 -11.892 21.511)" gradientUnits="userSpaceOnUse" x1="32.5" x2="32.5" y1="10.761374" y2="34.5"><stop offset="0" stop-color="#aff05f"/><stop offset="1" stop-color="#68b723"/></linearGradient><linearGradient id="e" gradientUnits="userSpaceOnUse" x1="32.5" x2="32.5" xlink:href="#a" y1="32" y2="39.5"/><linearGradient id="f" gradientUnits="userSpaceOnUse" x1="30" x2="30" xlink:href="#a" y1="22" y2="30"/><linearGradient id="g" gradientUnits="userSpaceOnUse" x1="30" x2="30" xlink:href="#a" y1="12" y2="22.5"/><linearGradient id="h" gradientUnits="userSpaceOnUse" x1="42.5" x2="42.5" y1="49.5" y2="7"><stop offset="0" stop-color="#f6f6f6"/><stop offset=".35294119" stop-color="#fcfcfc"/><stop offset="1" stop-color="#fff" stop-opacity=".915441"/></linearGradient><path d="m3 3h57v49h-57z" fill="#010101" opacity=".02"/><path d="m3 3h56.5v48.5h-56.5z" fill="#010101" opacity=".05"/><path d="m3 3h56v48h-56z" fill="#010101" opacity=".2"/><g stroke-linecap="round" stroke-linejoin="round"><path d="m.5.5h57v49h-57z" fill="url(#h)" stroke="#939393" stroke-width=".999"/><path d="m6.5 12.5v31" fill="none" stroke="#939393"/><path d="m6.5 43.5h38.5" fill="none" stroke="#939393"/><path d="m45.5 41.5-.035156-8.236328-16.422098-5.746426-20.4665741 6.660488-.0761719 7.322266z" fill="url(#b)" stroke="#7239b3" stroke-opacity=".746324"/><path d="m45.5 28.5c-.5-.186441-17-7.5-17-7.5l-20 6 .076172 7.177734 20.466574-6.660488 16.422098 5.746426z" fill="url(#c)" stroke="#b35039" stroke-opacity=".745098"/><path d="m43.219222 27.493774-14.719222-6.493774-14.431631 4.329489 15.431631-12.829489z" fill="url(#d)" stroke="#7bb339" stroke-opacity=".745098"/><path d="m29.027121 28.51334-19.4861053 6.422206-.076172 5.59961h35.0703123l-.035156-6.535156z" fill="none" stroke="url(#e)" stroke-opacity=".746324"/><path d="m28.40625 21.960938-18.9824219 5.796874.0761719 5.242188 19.323996-6.381192c.151837-.03638.310418-.0337.460938.0078l15.256082 5.428067.03516-2.935547c-.416396-.168134-.85457-.346802-1.90625-.78125-1.383476-.571514-3.17951-1.316267-4.960938-2.054688-3.431869-1.422547-9.059308-4.221185-9.302734-4.322265z" fill="none" stroke="url(#f)" stroke-opacity=".745098"/><path d="m29.447266 13.669922-10.961284 9.324222 9.810893-3.007816.599609.05859 10.103516 4.455082z" fill="none" stroke="url(#g)" stroke-opacity=".745098"/><path d="m1.5 1.5h55v47h-55z" fill="none" stroke="#fff" stroke-width=".999"/></g></svg>

<?xml version="1.0" encoding="UTF-8" standalone="no"?>
<svg
   xmlns:dc="http://purl.org/dc/elements/1.1/"
   xmlns:cc="http://creativecommons.org/ns#"
   xmlns:rdf="http://www.w3.org/1999/02/22-rdf-syntax-ns#"
   xmlns:svg="http://www.w3.org/2000/svg"
   xmlns="http://www.w3.org/2000/svg"
   xmlns:xlink="http://www.w3.org/1999/xlink"
   xmlns:sodipodi="http://sodipodi.sourceforge.net/DTD/sodipodi-0.dtd"
   xmlns:inkscape="http://www.inkscape.org/namespaces/inkscape"
   height="52"
   viewBox="0 0 60 52"
   width="60"
   version="1.1"
   id="svg71"
   sodipodi:docname="areaspiled_52x60.svg"
   inkscape:version="0.92.3 (unknown)"
   inkscape:export-filename="/home/rizmut/Dokumen/Rizmut/Github/libreoffice-style-elementary/images_elementary/chart2/res/areaspiled_52x60.png"
   inkscape:export-xdpi="96"
   inkscape:export-ydpi="96">
  <metadata
     id="metadata77">
    <rdf:RDF>
      <cc:Work
         rdf:about="">
        <dc:format>image/svg+xml</dc:format>
        <dc:type
           rdf:resource="http://purl.org/dc/dcmitype/StillImage" />
        <dc:title></dc:title>
      </cc:Work>
    </rdf:RDF>
  </metadata>
  <defs
     id="defs75">
    <linearGradient
       inkscape:collect="always"
       id="linearGradient1205">
      <stop
         style="stop-color:#f6f6f6;stop-opacity:1;"
         offset="0"
         id="stop1201" />
      <stop
         id="stop2419"
         offset="0.35294119"
         style="stop-color:#fcfcfc;stop-opacity:1" />
      <stop
         style="stop-color:#ffffff;stop-opacity:0.91544116"
         offset="1"
         id="stop1203" />
    </linearGradient>
    <linearGradient
       id="h"
       gradientTransform="matrix(1.3832,0,0,1.4144,-11.892,21.511)"
       gradientUnits="userSpaceOnUse"
       x1="13.697"
       x2="13.3"
       y1="12.091"
       y2="29.436001">
      <stop
         offset="0"
         stop-color="#aff05f"
         id="stop31" />
      <stop
         offset="1"
         stop-color="#68b723"
         id="stop33" />
    </linearGradient>
    <linearGradient
       id="i"
       gradientUnits="userSpaceOnUse"
       x1="12.00126"
       x2="12.00126"
       xlink:href="#a-2"
       y1="8.1875687"
       y2="19.999826" />
    <linearGradient
       id="a-2">
      <stop
         offset="0"
         stop-color="#fff"
         id="stop2-9" />
      <stop
         offset="0.58055538"
         stop-color="#fff"
         stop-opacity=".23529"
         id="stop4-1" />
      <stop
         offset="1"
         stop-color="#fff"
         stop-opacity=".15686"
         id="stop6" />
      <stop
         offset="1"
         stop-color="#fff"
         stop-opacity=".39216"
         id="stop8" />
    </linearGradient>
    <linearGradient
       id="f-2"
       gradientUnits="userSpaceOnUse"
       x1="13.608"
       x2="13.608"
       y1="2.5455"
       y2="21.532">
      <stop
         offset="0"
         stop-color="#f7b19e"
         id="stop25" />
      <stop
         offset="1"
         stop-color="#e2866d"
         id="stop27" />
    </linearGradient>
    <linearGradient
       id="g-7"
       gradientUnits="userSpaceOnUse"
       x1="11.876287"
       x2="12.00126"
       xlink:href="#a-2"
       y1="7.3122978"
       y2="19.999826" />
    <linearGradient
       id="j"
       gradientUnits="userSpaceOnUse"
       x1="15.608"
       x2="15.608"
       y1="2.5455"
       y2="21.532">
      <stop
         offset="0"
         stop-color="#cd9ef7"
         id="stop37" />
      <stop
         offset="1"
         stop-color="#a56de2"
         id="stop39" />
    </linearGradient>
    <linearGradient
       id="k"
       gradientUnits="userSpaceOnUse"
       x1="14.00124"
       x2="14.00124"
       xlink:href="#a-2"
       y1="4.0000048"
       y2="19.999826" />
    <linearGradient
       inkscape:collect="always"
       xlink:href="#j"
       id="linearGradient1115"
       x1="30"
       y1="27"
       x2="30"
       y2="39.5"
       gradientUnits="userSpaceOnUse" />
    <linearGradient
       inkscape:collect="always"
       xlink:href="#f-2"
       id="linearGradient1131"
       x1="35"
       y1="23.0145"
       x2="36.028595"
       y2="35.634556"
       gradientUnits="userSpaceOnUse" />
    <linearGradient
       inkscape:collect="always"
       xlink:href="#h"
       id="linearGradient1149"
       x1="32.5"
       y1="10.761374"
       x2="32.5"
       y2="34.5"
       gradientUnits="userSpaceOnUse" />
    <linearGradient
       inkscape:collect="always"
       xlink:href="#a-2"
       id="linearGradient1169"
       x1="32.5"
       y1="32"
       x2="32.5"
       y2="39.5"
       gradientUnits="userSpaceOnUse" />
    <linearGradient
       inkscape:collect="always"
       xlink:href="#a-2"
       id="linearGradient1181"
       x1="30"
       y1="22"
       x2="30"
       y2="30"
       gradientUnits="userSpaceOnUse" />
    <linearGradient
       inkscape:collect="always"
       xlink:href="#a-2"
       id="linearGradient1193"
       x1="30"
       y1="12"
       x2="30"
       y2="22.5"
       gradientUnits="userSpaceOnUse" />
    <linearGradient
       inkscape:collect="always"
       xlink:href="#linearGradient1205"
       id="linearGradient1207"
       x1="42.5"
       y1="49.5"
       x2="42.5"
       y2="7"
       gradientUnits="userSpaceOnUse" />
    <linearGradient
       id="a-3"
       gradientUnits="userSpaceOnUse"
       x1="9.9784946"
       x2="9.9784946"
       y1="13.912886"
       y2="-5.8720589"
       gradientTransform="translate(-85.554475,-30.546764)">
      <stop
         offset="0"
         id="stop1717" />
      <stop
         offset="1"
         stop-color="#333"
         id="stop1719" />
    </linearGradient>
    <linearGradient
       id="b-6"
       gradientUnits="userSpaceOnUse"
       x1="14"
       x2="6"
       y1="8"
       y2="16">
      <stop
         offset="0"
         stop-color="#fff"
         id="stop1722" />
      <stop
         offset=".125"
         stop-color="#fff"
         stop-opacity="0"
         id="stop1724" />
      <stop
         offset="1"
         stop-color="#fff"
         stop-opacity="0"
         id="stop1726" />
    </linearGradient>
    <clipPath
       id="c-0">
      <path
         inkscape:connector-curvature="0"
         d="M 8,2.6855469 V 16.685547 l 3.132812,-3.820313 2.066407,4.986328 a 1.0001,1.0001 0 1 0 1.847656,-0.765624 L 12.935547,11.990234 17.314453,12 Z"
         id="path1729" />
    </clipPath>
  </defs>
  <sodipodi:namedview
     pagecolor="#ffffff"
     bordercolor="#666666"
     borderopacity="1"
     objecttolerance="10"
     gridtolerance="10"
     guidetolerance="10"
     inkscape:pageopacity="0"
     inkscape:pageshadow="2"
     inkscape:window-width="1364"
     inkscape:window-height="704"
     id="namedview73"
     showgrid="true"
     inkscape:zoom="4.5384615"
     inkscape:cx="51.186527"
     inkscape:cy="3.9367344"
     inkscape:window-x="0"
     inkscape:window-y="0"
     inkscape:window-maximized="0"
     inkscape:current-layer="svg71">
    <inkscape:grid
       type="xygrid"
       id="grid895"
       spacingx="0.5"
       spacingy="0.5" />
  </sodipodi:namedview>
  <linearGradient
     id="a"
     gradientUnits="userSpaceOnUse"
     x1="29.525455894189"
     x2="29.525455894189"
     y1="35.604006871864"
     y2="16.823929761292"
     gradientTransform="translate(-60)">
    <stop
       offset="0"
       stop-color="#fbaeff"
       id="stop2" />
    <stop
       offset="1"
       stop-color="#ffd7d7"
       id="stop4" />
  </linearGradient>
  <linearGradient
     id="b"
     gradientUnits="userSpaceOnUse"
     x1="30.27586192"
     x2="30.27586192"
     y1="43.34487536"
     y2="30.9310824"
     gradientTransform="translate(-60)">
    <stop
       offset="0"
       stop-color="#99c2fc"
       id="stop7" />
    <stop
       offset="1"
       stop-color="#dceafe"
       id="stop9" />
  </linearGradient>
  <linearGradient
     id="c"
     gradientUnits="userSpaceOnUse"
     x1="36.4827584"
     x2="46.56896518"
     xlink:href="#d"
     y1="23.1724618"
     y2="40.64228401192"
     gradientTransform="translate(-60)" />
  <linearGradient
     id="d">
    <stop
       offset="0"
       stop-color="#fff"
       id="stop13" />
    <stop
       offset="1"
       stop-color="#fff"
       stop-opacity="0"
       id="stop15" />
  </linearGradient>
  <linearGradient
     id="e"
     gradientUnits="userSpaceOnUse"
     x1="39.859630516151"
     x2="50.44827548"
     xlink:href="#d"
     y1="3.311739960536"
     y2="29.37935828"
     gradientTransform="translate(-60)" />
  <linearGradient
     id="f"
     gradientUnits="userSpaceOnUse"
     x1="16.31034484"
     x2="24.864886637699"
     y1="34.21645904307"
     y2="2.290471955096"
     gradientTransform="translate(-60)">
    <stop
       offset="0"
       stop-color="#b900c4"
       id="stop19" />
    <stop
       offset="1"
       stop-color="#ae4300"
       id="stop21" />
  </linearGradient>
  <linearGradient
     id="g"
     gradientUnits="userSpaceOnUse"
     x1="13.012931085"
     x2="58.283811165318"
     y1="24.72418592"
     y2="12.593890241207"
     gradientTransform="translate(-60)">
    <stop
       offset="0"
       stop-color="#0968ef"
       id="stop24" />
    <stop
       offset="1"
       stop-color="#aecffc"
       id="stop26" />
  </linearGradient>
  <rect
     y="3"
     x="3"
     height="49"
     width="57"
     id="rect2411"
     style="opacity:0.02;vector-effect:none;fill:#010101;fill-opacity:1;stroke:none;stroke-width:0.99900001;stroke-linecap:round;stroke-linejoin:round;stroke-miterlimit:4;stroke-dasharray:none;stroke-dashoffset:0;stroke-opacity:1" />
  <rect
     style="opacity:0.05;vector-effect:none;fill:#010101;fill-opacity:1;stroke:none;stroke-width:0.98952127;stroke-linecap:round;stroke-linejoin:round;stroke-miterlimit:4;stroke-dasharray:none;stroke-dashoffset:0;stroke-opacity:1"
     id="rect2417"
     width="56.5"
     height="48.5"
     x="3"
     y="3" />
  <rect
     style="opacity:0.2;vector-effect:none;fill:#010101;fill-opacity:1;stroke:none;stroke-width:0.98004192;stroke-linecap:round;stroke-linejoin:round;stroke-miterlimit:4;stroke-dasharray:none;stroke-dashoffset:0;stroke-opacity:1"
     id="rect2415"
     width="56"
     height="48"
     x="3"
     y="3" />
  <rect
     style="opacity:1;vector-effect:none;fill:url(#linearGradient1207);fill-opacity:1;stroke:#939393;stroke-width:0.99900001;stroke-linecap:round;stroke-linejoin:round;stroke-miterlimit:4;stroke-dasharray:none;stroke-dashoffset:0;stroke-opacity:1"
     id="rect1199"
     width="57"
     height="49"
     x="0.5"
     y="0.5" />
  <path
     style="fill:none;stroke:#939393;stroke-width:1px;stroke-linecap:round;stroke-linejoin:round;stroke-opacity:1"
     d="m 6.5,12.5 v 31"
     id="path897"
     inkscape:connector-curvature="0"
     sodipodi:nodetypes="cc" />
  <path
     style="fill:none;stroke:#939393;stroke-width:1px;stroke-linecap:round;stroke-linejoin:round;stroke-opacity:1"
     d="M 6.5,43.5 H 45"
     id="path901"
     inkscape:connector-curvature="0" />
  <path
     style="fill:url(#linearGradient1115);fill-opacity:1;stroke:#7239b3;stroke-width:1px;stroke-linecap:round;stroke-linejoin:round;stroke-opacity:0.74632353"
     d="M 45.5,41.5 45.464844,33.263672 29.042746,27.517246 8.5761719,34.177734 8.5,41.5 Z"
     id="path1093"
     inkscape:connector-curvature="0"
     sodipodi:nodetypes="cccccc" />
  <path
     style="fill:url(#linearGradient1131);fill-opacity:1;stroke:#b35039;stroke-width:1px;stroke-linecap:round;stroke-linejoin:round;stroke-opacity:0.74509804"
     d="M 45.5,28.5 C 45,28.313559 28.5,21 28.5,21 l -20,6 0.076172,7.177734 20.466574,-6.660488 16.422098,5.746426 z"
     id="path1099"
     inkscape:connector-curvature="0"
     sodipodi:nodetypes="ccccccc" />
  <path
     sodipodi:nodetypes="ccccc"
     inkscape:connector-curvature="0"
     id="path1101"
     d="M 43.219222,27.493774 28.5,21 14.068369,25.329489 29.5,12.5 Z"
     style="fill:url(#linearGradient1149);fill-opacity:1;stroke:#7bb339;stroke-width:1px;stroke-linecap:round;stroke-linejoin:round;stroke-opacity:0.74509804" />
  <path
     style="fill:none;fill-opacity:1;stroke:url(#linearGradient1169);stroke-width:1px;stroke-linecap:round;stroke-linejoin:round;stroke-opacity:0.74632353"
     d="m 29.027121,28.51334 -19.4861053,6.422206 -0.076172,5.59961 H 44.535156 L 44.5,34 Z"
     id="path1161"
     inkscape:connector-curvature="0"
     sodipodi:nodetypes="cccccc" />
  <path
     style="fill:none;fill-opacity:1;stroke:url(#linearGradient1181);stroke-width:1px;stroke-linecap:round;stroke-linejoin:round;stroke-opacity:0.74509804"
     d="M 28.40625,21.960938 9.4238281,27.757812 9.5,33 28.823996,26.618808 c 0.151837,-0.03638 0.310418,-0.0337 0.460938,0.0078 l 15.256082,5.428067 0.03516,-2.935547 c -0.416396,-0.168134 -0.85457,-0.346802 -1.90625,-0.78125 -1.383476,-0.571514 -3.17951,-1.316267 -4.960938,-2.054688 -3.431869,-1.422547 -9.059308,-4.221185 -9.302734,-4.322265 z"
     id="path1173"
     inkscape:connector-curvature="0"
     sodipodi:nodetypes="cccccccsscc" />
  <path
     style="fill:none;fill-opacity:1;stroke:url(#linearGradient1193);stroke-width:1px;stroke-linecap:round;stroke-linejoin:round;stroke-opacity:0.74509804"
     d="m 29.447266,13.669922 -10.961284,9.324222 9.810893,-3.007816 0.599609,0.05859 L 39,24.5 Z"
     id="path1185"
     inkscape:connector-curvature="0"
     sodipodi:nodetypes="cccccc" />
  <rect
     y="1.5"
     x="1.5"
     height="47"
     width="55"
     id="rect1209"
     style="opacity:1;vector-effect:none;fill:none;fill-opacity:1;stroke:#ffffff;stroke-width:0.99900001;stroke-linecap:round;stroke-linejoin:round;stroke-miterlimit:4;stroke-dasharray:none;stroke-dashoffset:0;stroke-opacity:1" />
</svg>
